lib/svgs/wall.svg

<?xml version="1.0" encoding="UTF-8"?>
<svg width="16px" height="16px" viewBox="0 0 16 16" version="1.1" xmlns="http://www.w3.org/2000/svg" xmlns:xlink="http://www.w3.org/1999/xlink">
    <!-- Generator: sketchtool 51.3 (57544) - http://www.bohemiancoding.com/sketch -->
    <title>app/wall</title>
    <desc>Created with sketchtool.</desc>
    <defs></defs>
    <g id="Icons" stroke="none" stroke-width="1" fill="none" fill-rule="evenodd">
        <g id="Web" transform="translate(-195.000000, -552.000000)" fill="#000000">
            <g id="app/wall" transform="translate(195.000000, 552.000000)">
                <path d="M15.4,2.6 L12.787,2.6 L12.787,1.6 C12.787,1.269 12.519,1 12.187,1 L0.6,1 C0.269,1 0,1.269 0,1.6 L0,12.8 C0,14.014 0.99,15 2.206,15 L13.794,15 C15.01,15 16,14.011 16,12.794 L16,3.2 C16,2.869 15.732,2.6 15.4,2.6 M1.2,12.8 L1.2,2.2 L11.587,2.2 L11.587,12.794 C11.587,13.159 11.684,13.498 11.842,13.801 L2.206,13.801 C1.652,13.801 1.2,13.352 1.2,12.8 M14.8,12.794 C14.8,13.349 14.349,13.801 13.794,13.801 C13.238,13.801 12.787,13.349 12.787,12.794 L12.787,3.8 L14.8,3.8 L14.8,12.794 M3.24222822,10.4000939 C2.89349607,10.4000939 2.61008535,10.6690939 2.61008535,11.0000939 C2.61008535,11.3320939 2.89349607,11.6000939 3.24222822,11.6000939 L7.87794258,11.6000939 C8.2277283,11.6000939 8.51008545,11.3320939 8.51008545,11.0000939 C8.51008545,10.6690939 8.2277283,10.4000939 7.87794258,10.4000939 L3.24222822,10.4000939 M3.2107,8.40011221 L6.4107,8.40011221 C6.7427,8.40011221 7.0107,8.13111221 7.0107,7.80011221 C7.0107,7.46811221 6.7427,7.20011221 6.4107,7.20011221 L3.2107,7.20011221 C2.8787,7.20011221 2.6107,7.46811221 2.6107,7.80011221 C2.6107,8.13111221 2.8787,8.40011221 3.2107,8.40011221 M9.6106,4.0001 L3.2106,4.0001 C2.8796,4.0001 2.6106,4.2691 2.6106,4.6001 C2.6106,4.9321 2.8796,5.2001 3.2106,5.2001 L9.6106,5.2001 C9.9426,5.2001 10.2106,4.9321 10.2106,4.6001 C10.2106,4.2691 9.9426,4.0001 9.6106,4.0001" id="Shape"></path>
            </g>
        </g>
    </g>
</svg>

<svg xmlns="http://www.w3.org/2000/svg" viewBox="0 0 16 16">
    <path d="M15.4 2.6h-2.613v-1a.6.6 0 0 0-.6-.6H.6a.6.6 0 0 0-.6.6v11.2C0 14.014.99 15 2.206 15h11.588A2.208 2.208 0 0 0 16 12.794V3.2a.6.6 0 0 0-.6-.6M1.2 12.8V2.2h10.387v10.594c0 .365.097.704.255 1.007H2.206A1.005 1.005 0 0 1 1.2 12.8m13.6-.006a1.008 1.008 0 0 1-2.013 0V3.8H14.8v8.994M3.242 10.4a.617.617 0 0 0-.632.6c0 .332.283.6.632.6h4.636c.35 0 .632-.268.632-.6 0-.33-.282-.6-.632-.6H3.242m-.031-2h3.2a.6.6 0 1 0 0-1.2h-3.2a.6.6 0 1 0 0 1.2M9.61 4h-6.4a.6.6 0 0 0 0 1.2h6.4a.6.6 0 1 0 0-1.2"/>
</svg>
